!!!COM: Fux, Johann Joseph
!!!OMD: Gradus ad Parnassum Exercise
!!!YEC: CC0 1.0 Universal (Public Domain). Mark Gotham and FourScoreAndMore.org waive all rights to this document.
**kern	**kern
*part2	*part1
*staff2	*staff1
*I"2	*I"1
*I'Pno	*I'Pno
!!LO:LB:g=z
*clefGv2	*clefG2
*k[]	*k[]
!!LO:TX:omd:t=
*M2/2	*M2/2
=67	=67
!	!LO:TX:a:t=Fig. 15 (corrected version); Species&colon; 1; Modal final&colon; g; Cantus firmus&colon; Lower
1G	1g
=68	=68
1c	1e
=69	=69
1B	1d
=70	=70
1G	1g
=71	=71
1c	1g
=72	=72
1e	1g
=73	=73
1d	1a
=74	=74
1g	1b
=75	=75
1e	1g
=76	=76
1c	1cc
=77	=77
1d	1a
=78	=78
1B	1g
=79	=79
1A	1f#X
=80	=80
1G	1g
==	==
*-	*-
!!!software: music21 v.9.7.1
!!!software: music21 v.9.7.1
!!!software: MuseScore 3.4.2
!!!RDF**kern: > = above
!!!RDF**kern: < = below
